src/public/img/icons/transfer.svg

<svg width="20" height="20" viewBox="0 0 20 20" fill="none" xmlns="http://www.w3.org/2000/svg">
<path d="M3 4C3 3.44772 3.44772 3 4 3H16.5C17.0523 3 17.5 3.44772 17.5 4V7.5C17.5 8.05228 17.0523 8.5 16.5 8.5H4C3.44771 8.5 3 8.05228 3 7.5V4Z" stroke="#111A2C" stroke-width="1.5" stroke-linecap="round" stroke-linejoin="round"/>
<path d="M3 13C3 12.4477 3.44772 12 4 12H16.5C17.0523 12 17.5 12.4477 17.5 13V16.5C17.5 17.0523 17.0523 17.5 16.5 17.5H4C3.44771 17.5 3 17.0523 3 16.5V13Z" stroke="#111A2C" stroke-width="1.5" stroke-linecap="round" stroke-linejoin="round"/>
<path d="M14.5 3.25V8.25" stroke="#111A2C" stroke-width="1.5" stroke-linecap="round" stroke-linejoin="round"/>
<path d="M14.5 12.25V17.25" stroke="#111A2C" stroke-width="1.5" stroke-linecap="round" stroke-linejoin="round"/>
</svg>

<svg xmlns="http://www.w3.org/2000/svg" width="20" height="20" fill="none">
  <path stroke="#111A2C" stroke-linecap="round" stroke-linejoin="round" stroke-width="1.5" d="M3 4a1 1 0 0 1 1-1h12.5a1 1 0 0 1 1 1v3.5a1 1 0 0 1-1 1H4a1 1 0 0 1-1-1V4Zm0 9a1 1 0 0 1 1-1h12.5a1 1 0 0 1 1 1v3.5a1 1 0 0 1-1 1H4a1 1 0 0 1-1-1V13Zm11.5-9.75v5m0 4v5"/>
</svg>
